X: 4
T: Avant Deux de Travers - Les PIES
M: 4/4
L: 1/8
Q:1/4=120
K:G
|:DBB3/2 z/2 AAE3/2 z/2 |AA/2A/2Ad dcBG|DBB3/2 z/2 AAE3/2 z/2 |AA/2A/2Ac
 BAG3/2 z/2:|
|:AA/2A/2Ad dcBG|AA/2A/2Ac BAG3/2 z/2 |AA/2A/2Ad dcBG|AA/2A/2Ac BAG3/2:|
